assets/imgs/edit_icon/img.svg

<svg viewBox="0 0 128.38 123.49" xmlns="http://www.w3.org/2000/svg"><g fill="#525566"><path d="m101.56 0h-74.74a26.82 26.82 0 0 0 -26.82 26.82v69.85a26.82 26.82 0 0 0 26.82 26.82h74.74a26.82 26.82 0 0 0 26.82-26.82v-69.85a26.82 26.82 0 0 0 -26.82-26.82zm11.82 96.67a11.84 11.84 0 0 1 -11.82 11.82h-74.74a11.84 11.84 0 0 1 -11.82-11.82v-69.85a11.83 11.83 0 0 1 11.82-11.82h74.74a11.83 11.83 0 0 1 11.82 11.82z"/><circle cx="41.77" cy="40.5" r="11.57"/><path d="m89.84 49.9a3.79 3.79 0 0 0 -6.62-1.36l-23.22 29.26-9.44-11.24a3.79 3.79 0 0 0 -6 .29l-17.19 24.9a3.79 3.79 0 0 0 3.12 5.94h67.4a3.79 3.79 0 0 0 3.66-4.78z"/></g></svg>

<svg xmlns="http://www.w3.org/2000/svg" viewBox="0 0 128.38 123.49"><defs><style>.cls-1{fill:#525566;}</style></defs><title>img</title><g id="レイヤー_2" data-name="レイヤー 2"><g id="レイヤー_3" data-name="レイヤー 3"><path class="cls-1" d="M101.56,0H26.82A26.82,26.82,0,0,0,0,26.82V96.67a26.82,26.82,0,0,0,26.82,26.82h74.74a26.82,26.82,0,0,0,26.82-26.82V26.82A26.82,26.82,0,0,0,101.56,0Zm11.82,96.67a11.84,11.84,0,0,1-11.82,11.82H26.82A11.84,11.84,0,0,1,15,96.67V26.82A11.83,11.83,0,0,1,26.82,15h74.74a11.83,11.83,0,0,1,11.82,11.82Z"/><circle class="cls-1" cx="41.77" cy="40.5" r="11.57"/><path class="cls-1" d="M89.84,49.9a3.79,3.79,0,0,0-6.62-1.36L60,77.8,50.56,66.56a3.79,3.79,0,0,0-6,.29L27.37,91.75a3.79,3.79,0,0,0,3.12,5.94h67.4a3.79,3.79,0,0,0,3.66-4.78Z"/></g></g></svg>
